shader_type canvas_item;

uniform sampler2D testing_texture;

void vertex() {
  // Called for every vertex the material is visible on.
}

void fragment() {
  // Called for every pixel the material is visible on.
}
