shader_type canvas_item;

uniform vec4 testing = vec4(0.2, 0.4, 0.8, 1.0);

void vertex() {
  // Called for every vertex the material is visible on.
}

void fragment() {
  // Called for every pixel the material is visible on.
}
